svg/justvector/dribbble.svg

<svg xmlns="http://www.w3.org/2000/svg" viewBox="0 0 100 100" enable-background="new 0 0 100 100"><path d="m49.998 5c-24.853.002-44.998 20.15-44.998 45 0 24.85 20.14 44.998 44.998 44.998 24.853 0 44.999-20.15 45-44.998-.003-24.854-20.15-45-45-45m27.573 23.332c4.39 5.575 7.139 12.479 7.486 20.02-5.081-1.078-9.88-1.603-14.355-1.603h-.033c-3.602 0-6.984.327-10.17.892-.775-1.898-1.559-3.721-2.35-5.467 7.096-3.113 13.907-7.545 19.422-13.839m-27.573-13.439c8.282 0 15.878 2.895 21.892 7.715-4.602 5.51-10.677 9.501-17.24 12.319-4.611-8.917-9.07-15.296-12.11-19.2 2.411-.535 4.9-.838 7.461-.838m-15.507 3.66c2.437 2.878 7.316 9.209 12.527 19.09-10.598 3.155-21.27 3.896-27.727 3.894-.184 0-.366 0-.545-.002h-.006c-1.087 0-2.02-.017-2.803-.041 2.519-10.08 9.425-18.428 18.554-22.945m-19.601 31.449c0-.165.006-.333.016-.506 1 .037 2.288.069 3.835.069h.009c7.06-.046 19.379-.636 31.866-4.578.681 1.488 1.354 3.038 2.02 4.647-8.339 2.789-14.907 7.232-19.765 11.657-4.676 4.26-7.836 8.478-9.682 11.295-5.166-6.116-8.297-13.976-8.3-22.584m35.11 35.11c-7.813 0-15.01-2.584-20.856-6.92 1.242-2.045 3.904-5.97 8.143-10.03 4.362-4.18 10.383-8.482 18.244-11.04 2.672 7.49 5.09 16.05 6.932 25.691-3.88 1.478-8.07 2.299-12.463 2.299m19.87-6.234c-1.781-8.717-4.02-16.577-6.48-23.592 2.281-.327 4.675-.512 7.201-.512h.09.006.006c4.188 0 8.789.521 13.779 1.655-1.727 9.283-7.104 17.278-14.602 22.449"/></svg>

<?xml version="1.0" encoding="iso-8859-1"?>
<!-- Generator: Adobe Illustrator 15.0.0, SVG Export Plug-In . SVG Version: 6.00 Build 0)  -->
<!DOCTYPE svg PUBLIC "-//W3C//DTD SVG 1.1//EN" "http://www.w3.org/Graphics/SVG/1.1/DTD/svg11.dtd">
<svg version="1.1" id="Icons" xmlns="http://www.w3.org/2000/svg" xmlns:xlink="http://www.w3.org/1999/xlink" x="0px" y="0px"
	 width="100px" height="100px" viewBox="0 0 100 100" style="enable-background:new 0 0 100 100;" xml:space="preserve">
<path id="Dribbble" d="M49.998,5C25.145,5.002,5,25.148,5,50.002C5,74.852,25.145,95,49.998,95C74.851,95,94.997,74.852,95,50.002
	C94.997,25.148,74.851,5.002,49.998,5z M77.571,28.332c4.39,5.575,7.139,12.479,7.486,20.018c-5.081-1.078-9.88-1.603-14.355-1.603
	v-0.001h-0.033c-3.602,0-6.984,0.327-10.17,0.892c-0.775-1.898-1.559-3.721-2.35-5.467C65.245,39.058,72.056,34.626,77.571,28.332z
	 M49.998,14.893c8.282,0,15.878,2.895,21.892,7.715c-4.602,5.51-10.677,9.501-17.24,12.319c-4.611-8.917-9.067-15.296-12.113-19.196
	C44.948,15.196,47.437,14.893,49.998,14.893z M34.491,18.553c2.437,2.878,7.316,9.209,12.527,19.094
	c-10.598,3.155-21.27,3.896-27.727,3.894c-0.184,0-0.366,0-0.545-0.002H18.74c-1.087,0-2.022-0.017-2.803-0.041
	C18.456,31.418,25.362,23.07,34.491,18.553z M14.89,50.002c0-0.165,0.006-0.333,0.016-0.506c1.002,0.037,2.288,0.069,3.835,0.069
	h0.009c7.057-0.046,19.379-0.636,31.866-4.578c0.681,1.488,1.354,3.038,2.021,4.647c-8.339,2.789-14.907,7.232-19.765,11.657
	c-4.676,4.26-7.836,8.478-9.682,11.295C18.024,66.47,14.893,58.61,14.89,50.002z M49.998,85.111c-7.813,0-15.014-2.584-20.856-6.92
	c1.242-2.045,3.904-5.97,8.143-10.027c4.362-4.18,10.383-8.482,18.244-11.043c2.672,7.49,5.09,16.053,6.932,25.691
	C58.581,84.29,54.388,85.111,49.998,85.111z M69.868,78.877c-1.781-8.717-4.021-16.577-6.48-23.592
	c2.281-0.327,4.675-0.512,7.201-0.512h0.09h0.006h0.006c4.188,0,8.789,0.521,13.779,1.655
	C82.743,65.711,77.366,73.706,69.868,78.877z"/>
</svg>
